X:1
T:Miss Lucy Loo
M:4/4
L:1/8
K:F
 d3/2 d/2 d2 c3/2 A/2 G2| A3/2 A/2 G3/2 F/2 Gc CC| F2 G2 A2 B2| c4 f4|\
 d3/2 d/2 d2 c3/2 A/2 G2| F3/2 G/2 A3/2 F/2 D2 CC| F3/2 G/2 A3/2 B/2 c3/2 A/2 F3/2 G/2|\
 A3/2 A/2 G3/2 G/2 F4|
